packages/icons/plugins/PoolTogetherTrophy.svg

<svg width="16" height="16" viewBox="0 0 182 230" fill="none" xmlns="http://www.w3.org/2000/svg">
            <g clipPath="url(#clip0)">
                <path
                    fillRule="evenodd"
                    clipRule="evenodd"
                    d="M30.3339 15.8871C29.8869 11.7722 32.0591 11.3205 33.2011 11.6089C33.2011 11.6089 52.0917 19.6333 89.8159 20.2918C127.54 20.9503 148.301 11.8902 148.301 11.8902C149.444 11.6073 151.614 12.0697 151.147 16.1823C150.68 20.2948 149.965 32.1772 149.666 37.6043L171.377 37.6573C174.044 37.5686 178.973 39.1043 177.356 45.9565C177.027 47.3505 176.545 49.7352 175.925 52.7968C172.738 68.5477 165.925 102.213 157.771 111.043C152.041 117.885 144.32 121.294 138.317 122.708C133.317 124.194 128.102 123.933 126.299 123.842L126.299 123.842C126.04 123.829 125.852 123.82 125.745 123.82C121.731 129.809 111.472 142.754 102.549 146.617C99.6405 147.667 99.6637 148.724 99.682 149.554C99.6835 149.622 99.685 149.688 99.6848 149.752C100.142 157.467 102.081 174.726 106.176 182.05C106.72 183.143 106.872 183.974 106.977 184.545C107.092 185.168 107.149 185.48 107.596 185.481L113.024 185.494C113.596 185.496 114.967 185.499 115.878 186.644C116.365 187.256 117.22 187.242 118.149 187.227C119.393 187.207 120.773 187.184 121.587 188.658C122.458 190.235 122.277 191.92 122.184 192.789C122.163 192.978 122.147 193.128 122.147 193.23L130.717 193.251C131.765 193.253 133.858 193.773 133.853 195.83L133.811 212.97C133.811 213.282 133.788 213.538 133.77 213.746C133.688 214.684 133.688 214.684 136.093 214.69L143.52 214.708C143.997 214.709 144.948 214.768 144.942 217.282L144.923 224.996C144.922 225.567 144.919 226.71 142.348 226.703L38.104 226.449C35.5329 226.442 35.5357 225.3 35.5371 224.728L35.556 217.015C35.5621 214.501 36.5138 214.446 36.9906 214.447L44.4181 214.466C46.8229 214.472 46.8229 214.472 46.7453 213.534L46.7453 213.534L46.7453 213.533C46.728 213.325 46.7069 213.069 46.7077 212.757L46.7496 195.617C46.7546 193.56 48.8508 193.051 49.8983 193.053L58.4685 193.074C58.4687 192.972 58.4533 192.822 58.4339 192.633C58.3448 191.764 58.1718 190.078 59.051 188.505C59.8722 187.035 61.2513 187.065 62.4955 187.091C63.425 187.111 64.2792 187.129 64.7693 186.519C65.6863 185.379 67.0575 185.382 67.6289 185.383L73.0567 185.397C73.5042 185.398 73.563 185.086 73.6805 184.463C73.7881 183.893 73.9448 183.063 74.4934 181.972C78.6249 174.669 80.6478 157.419 81.1427 149.707C81.1429 149.643 81.1447 149.577 81.1465 149.51L81.1465 149.509C81.1688 148.678 81.1973 147.622 78.2937 146.558C69.3902 142.651 59.1948 129.656 55.21 123.647C55.1031 123.647 54.9161 123.656 54.6595 123.667L54.6581 123.667L54.6554 123.667L54.6552 123.667C52.8517 123.749 47.6361 123.985 42.6432 122.474C36.6475 121.031 28.9427 117.584 23.246 110.714C15.1355 101.844 8.48736 68.1462 5.37695 52.38C4.77236 49.3155 4.30143 46.9284 3.9794 45.5329C2.39638 38.6728 7.33272 37.1613 9.99878 37.263L31.7099 37.3161C31.4375 31.8876 30.7809 20.0019 30.3339 15.8871ZM15.8476 46.8138C12.5076 46.7555 13.3007 50.6603 13.9042 53.6313C13.9825 54.0169 14.0576 54.3867 14.1201 54.7302C14.6639 57.7197 17.1903 70.0411 23.8372 89.8645C30.484 109.688 43.3322 111.131 48.9255 109.374C45.0967 101.096 37.0168 74.5989 35.3888 65.4319C33.7607 56.2649 31.7356 47.0911 29.3524 47.0495L15.8476 46.8138ZM167.242 54.8108C167.897 51.8509 168.758 47.9604 165.418 47.9605L151.911 47.9604C149.528 47.9604 147.343 57.0975 145.555 66.2347C143.767 75.3718 135.226 101.724 131.253 109.934C136.815 111.788 149.686 110.57 156.678 90.8651C163.67 71.1608 166.411 58.8853 167.007 55.9058C167.076 55.5635 167.157 55.1951 167.242 54.8109L167.242 54.8108ZM109.937 85.5318L90.4634 97.7875L71.0746 85.3978L90.4062 113.585L90.4062 113.593L90.4089 113.589L90.4117 113.593L90.4117 113.585L109.937 85.5318ZM90.6544 44.0403L90.6544 44.0221L90.6491 44.0311L90.644 44.0222L90.6439 44.04L70.9767 77.6478L90.4858 89.882L90.4857 89.8887L90.4911 89.8854L90.4962 89.8885L90.4962 89.8822L110.089 77.783L90.6544 44.0403Z"
                    fill="#FFB636"
                />
                <path
                    d="M150.342 12.4881C150.294 17.973 123.755 22.1881 91.0653 21.9028C58.3754 21.6176 31.1194 16.9261 31.1673 11.4412C31.2152 5.95629 58.5488 1.75504 91.2387 2.04032C123.929 2.32561 150.39 7.00325 150.342 12.4881Z"
                    fill="#FFD469"
                />
                <path
                    d="M133.184 32.0401C136.105 32.0401 136.626 32.0401 141.923 30.1864C141.266 33.7106 137.812 60.4196 136.626 64.6113C133.458 75.8122 129.879 93.1217 125.24 96.4669C124.358 97.1025 120.473 96.4669 119.027 95.5353C117.581 94.6037 122.592 85.0014 128.682 64.6113C132.125 42.6323 131.066 33.0993 133.184 32.0401Z"
                    fill="#FFCC4E"
                />
            </g>
            <defs>
                <clipPath id="clip0">
                    <rect width="181.131" height="229.4" fill="white" />
                </clipPath>
            </defs>
        </svg>

<svg xmlns="http://www.w3.org/2000/svg" width="16" height="16" fill="none" viewBox="0 0 182 230">
    <path fill="#FFB636" d="M30.334 15.887c-.447-4.115 1.725-4.567 2.867-4.278 0 0 18.89 8.024 56.615 8.683 37.724.658 58.485-8.402 58.485-8.402 1.143-.283 3.313.18 2.846 4.292-.467 4.113-1.182 15.995-1.481 21.422l21.711.053c2.667-.088 7.596 1.447 5.979 8.3-.329 1.393-.811 3.778-1.431 6.84-3.187 15.75-10 49.416-18.154 58.246-5.73 6.842-13.451 10.251-19.454 11.665-5 1.486-10.215 1.225-12.018 1.134a14.101 14.101 0 0 0-.554-.022c-4.014 5.989-14.273 18.934-23.196 22.797-2.909 1.05-2.885 2.107-2.867 2.937l.003.198c.457 7.715 2.396 24.974 6.491 32.298.544 1.093.696 1.924.801 2.495.115.623.172.935.619.936l5.428.013c.572.002 1.943.005 2.854 1.15.487.612 1.342.598 2.271.583 1.244-.02 2.624-.043 3.438 1.431.871 1.577.69 3.262.597 4.131a4.677 4.677 0 0 0-.037.441l8.57.021c1.048.002 3.141.522 3.136 2.579l-.042 17.14c0 .312-.023.568-.041.776-.082.938-.082.938 2.323.944l7.427.018c.477.001 1.428.06 1.422 2.574l-.019 7.714c-.001.571-.004 1.714-2.575 1.707l-104.244-.254c-2.571-.007-2.568-1.149-2.567-1.721l.019-7.713c.006-2.514.958-2.569 1.435-2.568l7.427.019c2.405.006 2.405.006 2.327-.932v-.001a8.624 8.624 0 0 1-.037-.776l.042-17.14c.005-2.057 2.1-2.566 3.148-2.564l8.57.021c0-.102-.015-.252-.034-.441-.09-.869-.262-2.555.617-4.128.821-1.47 2.2-1.44 3.444-1.414.93.02 1.784.038 2.274-.572.917-1.14 2.288-1.137 2.86-1.136l5.428.014c.447.001.506-.311.623-.934.108-.57.265-1.4.813-2.491 4.132-7.303 6.155-24.553 6.65-32.265 0-.064.002-.13.004-.197v-.001c.022-.831.05-1.887-2.853-2.951-8.904-3.907-19.1-16.902-23.084-22.911-.107 0-.294.009-.55.02h-.005c-1.803.082-7.019.318-12.012-1.193-5.995-1.443-13.7-4.89-19.397-11.76-8.11-8.87-14.759-42.568-17.869-58.334-.605-3.065-1.076-5.452-1.398-6.847-1.583-6.86 3.354-8.372 6.02-8.27l21.71.053c-.271-5.428-.928-17.314-1.375-21.429ZM15.848 46.814c-3.34-.059-2.547 3.846-1.944 6.817.079.386.154.756.216 1.1.544 2.989 3.07 15.31 9.717 35.134 6.647 19.823 19.495 21.266 25.088 19.509-3.828-8.278-11.908-34.775-13.536-43.942-1.628-9.167-3.653-18.34-6.037-18.383l-13.504-.235Zm151.394 7.997c.655-2.96 1.516-6.85-1.824-6.85h-13.507c-2.383 0-4.568 9.136-6.356 18.274-1.788 9.137-10.329 35.489-14.302 43.699 5.562 1.854 18.433.636 25.425-19.069 6.992-19.704 9.733-31.98 10.329-34.96.069-.342.15-.71.235-1.094Zm-57.305 30.72L90.463 97.788l-19.388-12.39 19.331 28.188v.008l.003-.004.003.004v-.008l19.525-28.053Zm-19.283-41.49v-.019l-.005.01-.005-.01v.018L70.977 77.648l19.509 12.234v.007l.005-.004.005.003v-.006l19.593-12.099L90.654 44.04Z"/>
    <path fill="#FFD469" d="M150.342 12.488c-.048 5.485-26.587 9.7-59.277 9.415-32.69-.285-59.946-4.977-59.898-10.462.048-5.485 27.382-9.686 60.072-9.4 32.69.285 59.151 4.962 59.103 10.447Z"/>
    <path fill="#FFCC4E" d="M133.184 32.04c2.921 0 3.442 0 8.739-1.854-.657 3.525-4.111 30.234-5.297 34.425-3.168 11.201-6.747 28.51-11.386 31.856-.882.636-4.767 0-6.213-.932-1.446-.931 3.565-10.534 9.655-30.924 3.443-21.979 2.384-31.512 4.502-32.57Z"/>
</svg>
